public/assets/icons/ic_profile1.svg

<svg width="45" height="45" viewBox="0 0 45 45" fill="none" xmlns="http://www.w3.org/2000/svg">
<rect width="45" height="45" rx="22.5" fill="#7196FF"/>
<path d="M25.7114 12.6546L17.14 13.5481C17.14 13.5481 18.3007 11.7164 19.7739 11.493C21.2639 11.2262 22.7704 11.062 24.2828 11.0016C25.1757 10.9569 25.7114 11.8504 25.7114 12.6546Z" fill="#9CD6FA"/>
<path d="M37.0059 26.6377C36.3809 28.9161 33.6131 31.1498 32.4077 31.6859C31.5722 32.0818 30.7063 32.4104 29.8185 32.6687L28.6578 33.0261C26.1215 33.6519 23.5386 34.0702 20.9346 34.2769H20.5775C18.44 34.4639 16.2943 34.5384 14.149 34.5005C12.2294 34.5005 11.024 33.6069 10.0865 31.9093C8.71568 29.3561 7.83731 26.5675 7.49726 23.6892C7.27405 21.4108 8.34547 18.9983 10.9794 15.8264C12.6312 13.8161 14.4615 13.1906 23.5239 12.4759C29.372 11.9844 31.9166 11.9844 33.3006 13.4587C35.6667 15.9605 37.7648 23.9125 37.0059 26.6377Z" fill="url(#paint0_linear_604_11)"/>
<path d="M23.8364 14.1735C30.0864 13.6374 31.4702 13.8608 32.4525 15.6478C33.6045 17.9588 34.3446 20.4533 34.6398 23.0191C34.7738 24.7167 34.3721 25.4315 27.6756 26.191L18.3454 25.7889L15.2204 17.3007C15.3543 16.0052 15.6668 15.6478 16.7829 15.2904C17.8989 14.933 20.3989 14.4415 23.8364 14.1735Z" fill="#ED5F00"/>
<path d="M30.6666 30.167C30.488 30.8818 29.5059 32.222 28.6577 33.0262C26.1215 33.6519 23.5386 34.0704 20.9346 34.2771H20.5775C21.4526 33.411 22.231 32.4524 22.8989 31.4179C23.8364 30.033 24.3721 29.9436 27.2292 29.5862C30.0864 29.2288 30.9345 29.0501 30.6666 30.167Z" fill="#F5C749"/>
<path d="M12.3633 24.8954C13.0329 27.3971 12.4972 30.2116 10.8901 30.6584C9.28295 31.1051 7.67582 29.3628 7.14011 26.8611C6.6044 24.3593 7.67582 21.9468 9.14902 21.6341C10.6222 21.3214 11.7383 22.3936 12.3633 24.8954Z" fill="url(#paint1_linear_604_11)"/>
<path d="M9.37222 26.0569C9.68472 27.1738 9.46151 28.4246 8.70259 28.648C7.94367 28.8714 7.31867 28.1119 7.09546 26.9951C6.87225 25.8782 7.27403 24.5827 7.80974 24.4933C8.34545 24.404 9.10437 24.94 9.37222 26.0569Z" fill="#FAE773"/>
<path d="M23.3899 15.2458C29.506 14.7544 30.756 14.8437 31.5595 16.4073C32.7166 18.6498 33.4434 21.0894 33.7023 23.5999C33.8362 25.2529 33.1221 25.5656 26.6042 26.2804C20.0864 26.9952 18.1668 26.7718 17.2293 24.9848C16.2918 23.1978 15.2204 19.3112 15.2204 17.5242C15.2204 15.7372 17.1847 15.7819 23.3899 15.2458Z" fill="black"/>
<path d="M21.7828 19.9365C21.8237 20.0507 21.8396 20.1723 21.8295 20.2932C21.8194 20.4141 21.7835 20.5314 21.7243 20.6372C21.665 20.743 21.5838 20.835 21.4861 20.9068C21.3884 20.9785 21.2765 21.0285 21.1578 21.0533C20.8863 21.0461 20.6259 20.9438 20.4219 20.7642C20.218 20.5846 20.0834 20.3391 20.0417 20.0705C20.0009 19.9563 19.985 19.8346 19.9951 19.7138C20.0052 19.5929 20.0411 19.4756 20.1003 19.3698C20.1595 19.2639 20.2407 19.172 20.3384 19.1002C20.4362 19.0284 20.5481 18.9785 20.6668 18.9536C20.9383 18.9609 21.1987 19.0632 21.4027 19.2428C21.6066 19.4224 21.7411 19.6678 21.7828 19.9365ZM29.6845 19.177C29.6355 18.9238 29.5035 18.6941 29.3094 18.5242C29.1154 18.3544 28.8704 18.254 28.6131 18.2388C28.122 18.2835 27.8542 18.7749 27.9881 19.3557C28.0373 19.6089 28.1692 19.8386 28.3632 20.0085C28.5572 20.1783 28.8022 20.2787 29.0595 20.2939C29.5505 20.2492 29.8184 19.7578 29.6845 19.177ZM25.3096 21.5894C24.7517 21.6504 24.1994 21.755 23.6578 21.9022C23.7731 22.3315 24.0405 22.7042 24.4101 22.9507C24.7797 23.1973 25.2263 23.301 25.6667 23.2424C26.6042 23.1084 27.2292 22.3489 27.0506 21.5448C26.4699 21.5201 25.8882 21.535 25.3096 21.5894Z" fill="#84EE91"/>
<defs>
<linearGradient id="paint0_linear_604_11" x1="24.1891" y1="19.4585" x2="19.5852" y2="30.8035" gradientUnits="userSpaceOnUse">
<stop stop-color="#F5C749"/>
<stop offset="1" stop-color="#EF913C"/>
</linearGradient>
<linearGradient id="paint1_linear_604_11" x1="9.60883" y1="21.6788" x2="10.0067" y2="30.292" gradientUnits="userSpaceOnUse">
<stop stop-color="#FAE773"/>
<stop offset="1" stop-color="#F5C749"/>
</linearGradient>
</defs>
</svg>

<svg xmlns="http://www.w3.org/2000/svg" width="45" height="45" fill="none"><rect width="45" height="45" fill="#7196FF" rx="22.5"/><path fill="#9CD6FA" d="m25.71 12.65-8.57.9s1.16-1.83 2.63-2.06c1.5-.26 3-.43 4.51-.49.9-.04 1.43.85 1.43 1.65Z"/><path fill="url(#a)" d="M37 26.64c-.62 2.28-3.39 4.51-4.6 5.05-.83.4-1.7.72-2.58.98l-1.16.36a48.14 48.14 0 0 1-7.73 1.25h-.35c-2.14.18-4.29.26-6.43.22-1.92 0-3.13-.9-4.06-2.6a23.1 23.1 0 0 1-2.6-8.21c-.22-2.28.86-4.7 3.49-7.86 1.65-2.01 3.48-2.64 12.54-3.35 5.85-.5 8.4-.5 9.78.98 2.37 2.5 4.46 10.45 3.7 13.18Z"/><path fill="#ED5F00" d="M23.84 14.17c6.25-.53 7.63-.3 8.61 1.48 1.15 2.3 1.9 4.8 2.19 7.37.13 1.7-.27 2.41-6.96 3.17l-9.33-.4-3.13-8.49c.13-1.3.45-1.65 1.56-2.01a35.6 35.6 0 0 1 7.06-1.12Z"/><path fill="#F5C749" d="M30.67 30.17c-.18.71-1.16 2.05-2.01 2.86a48.15 48.15 0 0 1-7.73 1.25h-.35c.87-.87 1.65-1.83 2.32-2.86.94-1.39 1.47-1.48 4.33-1.83 2.86-.36 3.7-.54 3.44.58Z"/><path fill="url(#b)" d="M12.36 24.9c.67 2.5.14 5.31-1.47 5.76-1.6.45-3.21-1.3-3.75-3.8s.54-4.91 2-5.23c1.48-.3 2.6.76 3.22 3.27Z"/><path fill="#FAE773" d="M9.37 26.06c.31 1.11.1 2.36-.67 2.59-.76.22-1.38-.54-1.6-1.65-.23-1.12.17-2.42.71-2.5.54-.1 1.3.44 1.56 1.56Z"/><path fill="#000" d="M23.39 15.25c6.12-.5 7.37-.4 8.17 1.16a20.2 20.2 0 0 1 2.14 7.19c.14 1.65-.58 1.97-7.1 2.68-6.51.72-8.43.5-9.37-1.3-.94-1.78-2.01-5.67-2.01-7.46 0-1.78 1.96-1.74 8.17-2.27Z"/><path fill="#84EE91" d="M21.78 19.94a.85.85 0 0 1-.62 1.11 1.16 1.16 0 0 1-1.12-.98.85.85 0 0 1 .63-1.12 1.16 1.16 0 0 1 1.11.99Zm7.9-.76a1.16 1.16 0 0 0-1.07-.94c-.49.04-.76.53-.62 1.12a1.16 1.16 0 0 0 1.07.93c.5-.04.76-.53.62-1.11Zm-4.37 2.4c-.56.07-1.11.18-1.65.32a1.83 1.83 0 0 0 2 1.34c.94-.13 1.57-.9 1.4-1.7a12.8 12.8 0 0 0-1.75.05Z"/><defs><linearGradient id="a" x1="24.19" x2="19.59" y1="19.46" y2="30.8" gradientUnits="userSpaceOnUse"><stop stop-color="#F5C749"/><stop offset="1" stop-color="#EF913C"/></linearGradient><linearGradient id="b" x1="9.61" x2="10.01" y1="21.68" y2="30.29" gradientUnits="userSpaceOnUse"><stop stop-color="#FAE773"/><stop offset="1" stop-color="#F5C749"/></linearGradient></defs></svg>
